!!!!SEGMENT: pl-sa--165-a-iv-15--001-006_staromiejski-j--vesperae-de-sanctis-ex-c-laudate-dominum.krn
!!!cenid: 17xx:353
!!!COM: Staromiejski, J.
!!!COM-rismID: pe41024944
!!!CDT: <1737->1737
!!!CNT:
!!!OPR: Vesperae de Sanctis ex C
!!!OTL: Laudate Dominum
!!!OMV: 006
!!!PDT:
!!!AGN: Sacred; Vespers
!!!YEC: Copyright 2022 Narodowy Instytut Fryderyka Chopina (https://polishscores.org)
!!!YEM: License CC-BY-4.0 (https://creativecommons.org/licenses/by/4.0)
!!!SMS-siglum: PL-SA
!!!SMS-shelfmark: 165/A IV 15
!!!SMS-shelfwork: 001-006 M
!!!NIFC-rismSourceID: 1001077264
!!!NIFC-rismChildID: 1001077264
!!!NIFC-islandoraID: none
!!!URL-pdf-islandora:
!!!URL-scan: https://bc.bdsandomierz.pl/dlibra/publication/1551/edition/1519/content @EN{Scan in the Sandomierz Diocese Digital Library} @PL{Skany w portalu Cyfrowa Biblioteka Diecezjalna w Sandomierzu}
!!!IIIF:
!!!ONB-nifc: UWAGA: części Vesperae: Domine, Dixit Dominus, Confitebor, Beatus vir, Laudate, Laudate Dominum, Magnificat
!!!AIN: 1 alto 3 empty 1 organ 1 tenor 2 violn 1 vox
!!!key:
**kern	**fba	**kern	**kern	**kern	**text	**kern	**text	**kern	**text	**kern	**text	**kern	**kern
*part9	*	*part8	*part7	*part6	*	*part5	*	*part4	*	*part3	*	*part2	*part1
*staff9	*	*staff8	*staff7	*staff6	*	*staff5	*	*staff4	*	*staff3	*	*staff2	*staff1
*Iorgan	*	*Ivioln	*Ivioln	*Iempty	*	*Itenor	*	*Ialto	*	*Ivox	*	*Iempty	*Iempty
*I"Organo	*	*I"Violino Secundo.	*I"Violino Imo	*I"Baᶘso.	*	*I"Tenore	*	*I"Alto	*	*I"Canto	*	*I"Clarino Secundo	*I"Clarino. Imo
*I'Org.	*	*I'V-no II	*I'V-no I	*I'B.	*	*I'T.	*	*I'A.	*	*I'C.	*	*I'Cl. II	*I'Cl. I
*clefF4	*	*clefG2	*clefG2	*clefF4	*	*clefC4	*	*clefC3	*	*clefC1	*	*clefG2	*clefG2
*k[]	*	*k[]	*k[]	*k[]	*	*k[]	*	*k[]	*	*k[]	*	*k[]	*k[]
*C:	*	*C:	*C:	*C:	*	*C:	*	*C:	*	*C:	*	*C:	*C:
*M2/4	*	*M2/4	*M2/4	*M2/4	*	*M2/4	*	*M2/4	*	*M2/4	*	*M2/4	*M2/4
=1	=1	=1	=1	=1	=1	=1	=1	=1	=1	=1	=1	=1	=1
*	*	*2\right	*2\right	*	*	*	*	*	*	*	*	*	*
!LO:TX:a:t=P:problem=wszystkie caudy z prawej strony	!	!	!	!LO:TX:a:t=P:problem=wszystkie caudy z prawej strony	!	!LO:TX:a:t=P:problem=wszystkie caudy z prawej strony	!	!LO:TX:a:t=P:problem=wszystkie caudy z prawej strony	!	!LO:TX:a:t=P:problem=wszystkie caudy z prawej strony	!	!LO:TX:a:t=P:problem=wszystkie caudy z prawej strony	!LO:TX:a:t=P:problem=wszystkie caudy z prawej strony
!LO:TX:a:t=P:problem=w źródle 'Laudate' przed kluczem i oznaczeniem metrum	!	!LO:TX:a:t=P:problem=w źródle 'Laudate Dominum' przed kluczem i oznaczeniem metrum	!LO:TX:a:t=P:problem=w źródle 'Laudate Dominum' przed kluczem i oznaczeniem metrum	!LO:TX:a:t=P:problem=w źródle 'L' przed kluczem i oznaczeniem metrum	!	!LO:TX:a:t=P:problem=w źródle 'L' przed kluczem i oznaczeniem metrum	!	!LO:TX:a:t=P:problem=w źródle 'L' przed kluczem i oznaczeniem metrum	!	!LO:TX:a:t=P:problem=w źródle 'L' przed oznaczeniem metrum	!	!LO:TX:a:t=P:problem=w źródle 'lau' przed oznaczeniem metrum	!LO:TX:a:t=P:problem=w źródle 'L' przed oznaczeniem metrum
!LO:TX:a:i:t=Solo	!	!	!	!	!	!	!	!	!	!LO:TX:a:i:t=Solo	!	!	!
!	!	!	!	!LO:N:vis=00	!	!LO:N:vis=00	!	!LO:N:vis=00	!	!	!	!LO:N:vis=00	!LO:N:vis=00
!	!	!	!	!LO:SIC:o=10:v:t=nad taktem pauz	!	!	!	!LO:SIC:o=10:v:t=nad taktem pauz	!	!	!	!	!
8r	.	8r	8r	0r	.	0r	.	0r	.	2g\	Lau-	0r	0r
8C/L	.	8c/L	8e/L	.	.	.	.	.	.	.	.	.	.
8C/	.	8c/	8e/	.	.	.	.	.	.	.	.	.	.
8C/J	.	8c/J	8e/J	.	.	.	.	.	.	.	.	.	.
=2	=2	=2	=2	=2	=2	=2	=2	=2	=2	=2	=2	=2	=2
8r	.	8r	8r	.	.	.	.	.	.	2a\	-da-	.	.
8F\L	.	8c/L	8f/L	.	.	.	.	.	.	.	.	.	.
8F\	.	8c/	8f/	.	.	.	.	.	.	.	.	.	.
8F\J	.	8c/J	8f/J	.	.	.	.	.	.	.	.	.	.
=3	=3	=3	=3	=3	=3	=3	=3	=3	=3	=3	=3	=3	=3
8r	.	8r	8r	.	.	.	.	.	.	2b\	.	.	.
!	!	!LO:SIC:s=8d:v	!	!	!	!	!	!	!	!	!	!	!
8D\L	6	8e/L	8f/L	.	.	.	.	.	.	.	.	.	.
!	!	!LO:SIC:s=8d:v	!	!	!	!	!	!	!	!	!	!	!
8D\	.	8e/	8f/	.	.	.	.	.	.	.	.	.	.
!	!	!LO:SIC:s=8d:v	!	!	!	!	!	!	!	!	!	!	!
8D\J	.	8e/J	8f/J	.	.	.	.	.	.	.	.	.	.
=4	=4	=4	=4	=4	=4	=4	=4	=4	=4	=4	=4	=4	=4
8r	.	8r	8r	.	.	.	.	.	.	4cc\	-te	.	.
8C/L	.	8G/L	8e/L	.	.	.	.	.	.	.	.	.	.
8C/	.	8G/	8e/	.	.	.	.	.	.	4g\	lau-	.	.
8C/J	.	8G/J	8e/J	.	.	.	.	.	.	.	.	.	.
=5	=5	=5	=5	=5	=5	=5	=5	=5	=5	=5	=5	=5	=5
!	!	!	!	!LO:N:vis=00	!	!LO:N:vis=00	!	!LO:N:vis=00	!	!	!	!LO:N:vis=00	!LO:N:vis=00
8r	.	8r	8r	0r	.	0r	.	0r	.	2a\	-da-	0r	0r
8F\L	.	8c/L	8f/L	.	.	.	.	.	.	.	.	.	.
8F\	.	8c/	8f/	.	.	.	.	.	.	.	.	.	.
8F\J	.	8c/J	8f/J	.	.	.	.	.	.	.	.	.	.
=6	=6	=6	=6	=6	=6	=6	=6	=6	=6	=6	=6	=6	=6
8r	.	8r	8r	.	.	.	.	.	.	2b\	.	.	.
8D\L	6	8d/L	8f/L	.	.	.	.	.	.	.	.	.	.
8D\	.	8d/	8f/	.	.	.	.	.	.	.	.	.	.
8D\J	.	8d/J	8f/J	.	.	.	.	.	.	.	.	.	.
=7	=7	=7	=7	=7	=7	=7	=7	=7	=7	=7	=7	=7	=7
8r	.	8r	8r	.	.	.	.	.	.	4cc\	.	.	.
16C/LL	.	16c/LL	16e/LL	.	.	.	.	.	.	.	.	.	.
16D/JJ	.	16d/JJ	16f/JJ	.	.	.	.	.	.	.	.	.	.
8E/L	.	8e/L	8g/L	.	.	.	.	.	.	4g\	.	.	.
8C/J	.	8c/J	8e/J	.	.	.	.	.	.	.	.	.	.
=8	=8	=8	=8	=8	=8	=8	=8	=8	=8	=8	=8	=8	=8
8r	.	8r	8r	.	.	.	.	.	.	2f/	.	.	.
16D/LL	.	16d/LL	16f/LL	.	.	.	.	.	.	.	.	.	.
16C/JJ	.	16c/JJ	16e/JJ	.	.	.	.	.	.	.	.	.	.
!	!	!LO:SIC:s=8B:v	!	!	!	!	!	!	!	!	!	!	!
8BB/L	.	8c/L	8d/L	.	.	.	.	.	.	.	.	.	.
8GG/J	.	8G/J	8B/J	.	.	.	.	.	.	.	.	.	.
!	!	!	!LO:LB:g=original	!	!	!	!	!	!	!	!	!	!
=9	=9	=9	=9	=9	=9	=9	=9	=9	=9	=9	=9	=9	=9
!	!	!	!	!LO:N:vis=0	!	!LO:N:vis=0	!	!LO:N:vis=0	!	!	!	!LO:N:vis=0	!LO:N:vis=0
8r	.	8r	8r	1r	.	1r	.	1r	.	4e\	.	1r	1r
16C\LL	.	16c/LL	16e/LL	.	.	.	.	.	.	.	.	.	.
16D\JJ	.	16d/JJ	16f/JJ	.	.	.	.	.	.	.	.	.	.
8E\L	.	8e/L	8g/L	.	.	.	.	.	.	4cc\	.	.	.
8F\J	.	8f/J	8a/J	.	.	.	.	.	.	.	.	.	.
=10	=10	=10	=10	=10	=10	=10	=10	=10	=10	=10	=10	=10	=10
8r	.	8r	8r	.	.	.	.	.	.	4cc\	.	.	.
16E\LL	.	16e/LL	16g/LL	.	.	.	.	.	.	.	.	.	.
16F\JJ	.	16f/JJ	16a/JJ	.	.	.	.	.	.	.	.	.	.
!	!	!LO:LB:g=original	!	!	!	!	!	!	!	!	!	!	!
!LO:TX:a:t=P:problem=mixed beam	!	!	!	!	!	!	!	!	!	!	!	!	!
8G\L	.	8g/L	8g/L	.	.	.	.	.	.	4b\	.	.	.
8GG/J	.	8G/J	8G/J	.	.	.	.	.	.	.	.	.	.
!LO:LB:g=original	!	!	!	!	!	!	!	!	!	!LO:LB:g=original	!	!	!
=11	=11	=11	=11	=11	=11	=11	=11	=11	=11	=11	=11	=11	=11
!	!	!	!	!	!	!LO:TX:a:t=P:problem=W taktach 11-16 tekst nie do odczytania przez jakość kopii; wprowadzony tekst najbardziej prawdopodobny	!	!	!	!	!	!	!
!LO:TX:a:t=P:problem=mixed beam	!	!LO:TX:a:t=P:problem=mixed beam	!LO:TX:a:t=P:problem=mixed beam	!	!	!	!	!	!	!	!	!	!
8C/L	.	8c/L	8c/L	8r	.	8r	.	8r	.	8cc\	.	8r	8r
!	!	!	!	!	!	!	!	!LO:TX:a:i:t=Tutti	!	!	!	!	!
8c\	.	8ee\	8gg\	8c\	Lau-	8d\	Lau-	8g\	Lau-	8ee\	.	8cc\L	8ee\L
8c\	.	8ee\	8gg\	8c\	-da-	8d\	-da-	8g\	-da-	8ee\	.	8cc\	8ee\
!	!	!	!	!	!	!	!	!	!	!LO:SIC:s=te:v:t=pod nutą 8ee powinen znajdować się tekst "te"	!	!	!
8c\J	.	8ee\J	8gg\J	8c\	-te	8d\	-te	8g\	-te	8ee\	.	8cc\J	8ee\J
=12	=12	=12	=12	=12	=12	=12	=12	=12	=12	=12	=12	=12	=12
8B\L	.	8dd\L	4gg\	8B\	Do-	8d\	Do-	8g\	Do-	8dd\	-Do-	8g/L	8dd\L
8B\	.	8dd\	.	16B\	-mi-	16d\	-mi-	16g\	-mi-	16dd\	-mi-	8g/	8dd\
.	.	.	.	16B\	-num	16d\	-num	16g\	-num	16dd\	-num	.	.
8c\	.	8ee\	8r	8c\	om-	8c\	om-	8g\	om-	8ee\	om-	8cc/	8ee\
!	!	!	!	!	!	!LO:SIC:s=8c:v	!	!	!	!	!	!	!
8c\J	.	8ee\J	8gg\	8c\	-nes	8B\	-nes	8g\	-nes	8ee\	-nes	8cc/J	8ee\J
=13	=13	=13	=13	=13	=13	=13	=13	=13	=13	=13	=13	=13	=13
!	!	!	!LO:TX:a:t=P:problem=mixed beam	!	!	!	!	!	!	!	!	!	!
8G\L	.	4dd\	16gg\LL	8G\	gen-	8B\	gen-	8g\	gen-	8dd\	gen-	8g/L	8dd\L
.	.	.	16g/	.	.	.	.	.	.	.	.	.	.
8G\J	.	.	16b/	8G\	-tes	4B\	-tes	8g\	-tes	8dd\	-tes	8g/J	8dd\J
.	.	.	16dd/JJ	.	.	.	.	.	.	.	.	.	.
8r	.	8r	16b\LL	8r	.	.	.	8r	.	8r	.	8r	8r
.	.	.	16g\	.	.	.	.	.	.	.	.	.	.
8G\	.	8dd\	16b\	8G\	Lau-	8B\	Lau-	8g\	lau-	8dd\	lau-	8g/	8dd\
.	.	.	16dd\JJ	.	.	.	.	.	.	.	.	.	.
=14	=14	=14	=14	=14	=14	=14	=14	=14	=14	=14	=14	=14	=14
8c\L	.	8ee\L	4gg\	8c\	-da-	8c\	-da-	8g\	-da-	8ee\	-da-	8g\L	8ee\L
8c\	.	8ee\	.	8c\	-te	8c\	-te	8g\	-te	8ee\	-te	8ee\	8gg\
8B\	.	8dd\	8r	8B\	eum	8B\	eum	8g\	eum	8dd\	eum	8dd\	8gg\
8A\J	6	8cc\J	8ff#X\	8A\	.	8c\	.	8f#X\	.	8cc\	.	8cc\J	8ff#X\J
=15	=15	=15	=15	=15	=15	=15	=15	=15	=15	=15	=15	=15	=15
!LO:TX:a:t=P:problem=mixed beam	!	!	!	!	!	!	!	!	!	!	!	!	!
8G\L	.	8b\L	8gg\L	8G\	om-	8d\	om-	8g\	om-	8b\	om-	8dd\L	4gg\
8c\	.	8ee\	8aa\	8c\	-nes	8e\	-nes	16a\LL	-nes	8cc\	-nes	8ee\	.
.	.	.	.	.	.	.	.	16g\JJ	.	.	.	.	.
8d\	.	8a\	8dd\	8.d\	Po-	8d\	Po-	8g\	Po-	8.a\	Po-	8.dd\	4ff#X\
8D/J	.	8dd\J	8ff#X\J	.	.	8d\	-pu	8f#X\	-pu-	.	.	.	.
.	.	.	.	16D\	-pu-	.	.	.	.	16a\	-pu-	16dd\Jk	.
=16	=16	=16	=16	=16	=16	=16	=16	=16	=16	=16	=16	=16	=16
8r	.	8b\L	8gg\L	4G\	-li	4d\	-li	4g\	-li	4b\	-li	4dd\	4gg\
!LO:TX:a:i:t=Solo	!	!	!	!	!	!	!	!	!	!	!	!	!
8G\L	.	8g\	8b\	.	.	.	.	.	.	.	.	.	.
8G\	.	8g\	8b\	4r	.	4r	.	4d\	lau-	4r	.	4r	4r
8G\J	.	8g\J	8b\J	.	.	.	.	.	.	.	.	.	.
=17	=17	=17	=17	=17	=17	=17	=17	=17	=17	=17	=17	=17	=17
!	!	!	!	!	!	!	!	!LO:TX:a:i:t=Solo	!	!	!	!	!
!	!	!	!	!LO:N:vis=00	!	!LO:N:vis=00	!	!	!	!LO:N:vis=00	!	!LO:N:vis=00	!LO:N:vis=00
8r	.	8r	8r	0r	.	0r	.	2e\	-da-	0r	.	0r	0r
8c\L	.	8g/L	8cc\L	.	.	.	.	.	.	.	.	.	.
8c\	.	8g/	8cc\	.	.	.	.	.	.	.	.	.	.
8c\J	.	8g/J	8cc\J	.	.	.	.	.	.	.	.	.	.
=18	=18	=18	=18	=18	=18	=18	=18	=18	=18	=18	=18	=18	=18
8r	.	8r	8r	.	.	.	.	2f#X\	.	.	.	.	.
8A\L	.	8a\L	8cc\L	.	.	.	.	.	.	.	.	.	.
8A\	6	8a\	8cc\	.	.	.	.	.	.	.	.	.	.
8A\J	.	8a\J	8cc\J	.	.	.	.	.	.	.	.	.	.
!	!	!	!LO:LB:g=original	!	!	!	!	!LO:LB:g=original	!	!	!	!	!
=19	=19	=19	=19	=19	=19	=19	=19	=19	=19	=19	=19	=19	=19
8r	.	8r	8r	.	.	.	.	4g\	-te	.	.	.	.
8G\L	.	8d/L	8b\L	.	.	.	.	.	.	.	.	.	.
8G\	.	8d/	8b\	.	.	.	.	4d\	lau-	.	.	.	.
8G\J	.	8d/J	8b\J	.	.	.	.	.	.	.	.	.	.
=20	=20	=20	=20	=20	=20	=20	=20	=20	=20	=20	=20	=20	=20
8r	.	8r	8r	.	.	.	.	2e\	-da-	.	.	.	.
8c\L	.	8g/L	8cc\L	.	.	.	.	.	.	.	.	.	.
8c\	.	8g/	8cc\	.	.	.	.	.	.	.	.	.	.
8c\J	.	8g/J	8cc\J	.	.	.	.	.	.	.	.	.	.
=21	=21	=21	=21	=21	=21	=21	=21	=21	=21	=21	=21	=21	=21
!	!	!	!	!LO:N:vis=00	!	!LO:N:vis=00	!	!	!	!LO:N:vis=00	!	!LO:N:vis=00	!LO:N:vis=00
8r	.	8r	8r	0r	.	0r	.	2f#X\	.	0r	.	0r	0r
8A\L	.	8a/L	8cc\L	.	.	.	.	.	.	.	.	.	.
8A\	6	8a/	8cc\	.	.	.	.	.	.	.	.	.	.
8A\J	.	8a/J	8cc\J	.	.	.	.	.	.	.	.	.	.
=22	=22	=22	=22	=22	=22	=22	=22	=22	=22	=22	=22	=22	=22
8r	.	8r	8r	.	.	.	.	4g\	.	.	.	.	.
!LO:SIC:o=6:v:t=w źródle zapisana najprawdopodobniej cyfryzacja po czym zamazana	!	!	!	!	!	!	!	!	!	!	!	!	!
16G\LL	.	16g\LL	16b\LL	.	.	.	.	.	.	.	.	.	.
16A\JJ	.	16a\JJ	16cc\JJ	.	.	.	.	.	.	.	.	.	.
8B\L	.	8b\L	8dd\L	.	.	.	.	4d\	.	.	.	.	.
8G\J	.	8g\J	8b\J	.	.	.	.	.	.	.	.	.	.
!LO:LB:g=original	!	!	!	!	!	!	!	!	!	!	!	!	!
=23	=23	=23	=23	=23	=23	=23	=23	=23	=23	=23	=23	=23	=23
8r	.	8r	8r	.	.	.	.	2c/	.	.	.	.	.
16A\LL	.	16a\LL	16cc\LL	.	.	.	.	.	.	.	.	.	.
16G\JJ	.	16g\JJ	16b\JJ	.	.	.	.	.	.	.	.	.	.
8F#X\L	.	8f#X/L	8a\L	.	.	.	.	.	.	.	.	.	.
8D\J	.	8d/J	8f#X\J	.	.	.	.	.	.	.	.	.	.
=24	=24	=24	=24	=24	=24	=24	=24	=24	=24	=24	=24	=24	=24
8r	.	8r	8r	.	.	.	.	4B/	.	.	.	.	.
16G\LL	.	16g\LL	16b\LL	.	.	.	.	.	.	.	.	.	.
16A\JJ	.	16a\JJ	16cc\JJ	.	.	.	.	.	.	.	.	.	.
8B\L	.	8b\L	8dd\L	.	.	.	.	4g\	.	.	.	.	.
8c\J	.	8cc\J	8ee\J	.	.	.	.	.	.	.	.	.	.
!	!	!LO:LB:g=original	!	!	!	!	!	!	!	!	!	!	!
=25	=25	=25	=25	=25	=25	=25	=25	=25	=25	=25	=25	=25	=25
8r	.	8r	8r	2r	.	2r	.	4g\	.	2r	.	2r	2r
16B\LL	.	16b\LL	16dd\LL	.	.	.	.	.	.	.	.	.	.
16c\JJ	.	16cc\JJ	16ee\JJ	.	.	.	.	.	.	.	.	.	.
!LO:TX:a:t=P:problem=mixed beam	!	!LO:TX:a:t=P:problem=mixed beam	!LO:TX:a:t=P:problem=mixed beam	!	!	!	!	!	!	!	!	!	!
8d\L	.	8dd\L	8dd\L	.	.	.	.	4f#X\	.	.	.	.	.
8D/J	.	8d/J	8d/J	.	.	.	.	.	.	.	.	.	.
!	!	!	!	!	!	!LO:PB:g=original	!	!	!	!	!	!	!LO:LB:g=original
=26	=26	=26	=26	=26	=26	=26	=26	=26	=26	=26	=26	=26	=26
!LO:TX:a:i:t=Tutti	!	!	!	!	!	!	!	!	!	!	!	!	!
!	!	!	!LO:TX:a:t=P:problem=mixed beam	!	!	!	!	!	!	!	!	!	!
!	!	!	!	!	!	!	!	!LO:SIC:s=te:v:t=sylaba 'te' powinna znajdować się pod nutą 8g	!	!	!	!	!
8G\L	.	8g\L	8g/L	8r	.	8r	.	8g\	.	8r	.	8r	8r
*	*	*	*	*	*ij	*	*	*	*	*	*	*	*
8G\	.	8dd\	8bb\	8G\	Lau-	8d\	Lau-	8g\	lau-	8b\	Lau-	8g/L	8dd\L
8G\	.	8dd\	8bb\	8G\	-da-	8d\	-da-	8g\	-da-	8b\	-da-	8g/	8dd\
8G\J	.	8dd\J	8bb\J	8G\	-te	8d\	-te	8g\	-te	8b\	-te	8g/J	8dd\J
!	!	!	!	!LO:LB:g=original	!	!	!	!	!	!	!	!LO:LB:g=original	!
=27	=27	=27	=27	=27	=27	=27	=27	=27	=27	=27	=27	=27	=27
8E\L	.	4ee\	4ccc\	8E\	Do-	8e\	Do-	8g\	Do-	8cc\	Do-	8cc\L	8ee\L
8E\	.	.	.	16E\	-mi-	16e\	-mi-	16g\	-mi-	16cc\	-mi-	8cc\	8ee\
.	.	.	.	16E\	-num	16e\	-num	16g\	-num	16cc\	-num	.	.
8Fn\	.	8r	8r	8Fn\	om-	8c\	om-	8a\	om-	8cc\	om-	8cc\	8cc\
8F\J	.	8cc\	8aa\	8F\	-nes	8c\	-nes	8a\	-nes	8cc\	-nes	8cc\J	8cc\J
!	!	!	!	!	!	!	!	!	!	!LO:LB:g=original	!	!	!
=28	=28	=28	=28	=28	=28	=28	=28	=28	=28	=28	=28	=28	=28
!	!	!LO:TX:a:t=P:problem=mixed beam	!LO:TX:a:t=P:problem=mixed beam	!	!	!	!	!	!	!	!	!	!
8C/L	.	16ee\LL	16gg\LL	8C/	gen-	8e\	gen-	8g\	gen-	8cc\	gen-	8cc\L	8ee\L
.	.	16c/	16c/	.	.	.	.	.	.	.	.	.	.
8C/J	.	16e/	16e/	8C/	-tes	8e\	-tes	8g\	-tes	8cc\	-tes	8cc\J	8ee\J
.	.	16g/JJ	16g/JJ	.	.	.	.	.	.	.	.	.	.
8r	.	16c/LL	16e/LL	8r	.	8r	.	8r	.	8r	.	8r	8r
.	.	16e/	16g/	.	.	.	.	.	.	.	.	.	.
!	!	!	!LO:SIC:s=16cc:v	!	!	!	!	!	!	!	!	!	!
8c\	.	16g/	16b/	8c\	lau-	8c\	lau-	8g\	lau-	8ee\	lau-	8cc\	8ee\
.	.	16cc/JJ	16ee/JJ	.	.	.	.	.	.	.	.	.	.
=29	=29	=29	=29	=29	=29	=29	=29	=29	=29	=29	=29	=29	=29
8B\L	.	4g/	4dd\	8B\	-da-	8d\	-da-	8g\	-da-	8dd\	-da-	8g/L	8dd\L
8B\	.	.	.	8B\	-te	8d\	-te	8g\	-te	8dd\	-te	8g/	8dd\
8c\	.	8r	8r	8c\	eum	8c\	eum	8g\	eum	8ee\	eum	8cc/	8ee\
8c\J	.	8ee\	8gg\	8c\	.	8e\	.	8g\	.	8ee\	.	8cc/J	8ee\J
!	!	!	!LO:LB:g=original	!	!	!	!	!LO:LB:g=original	!	!	!	!	!
=30	=30	=30	=30	=30	=30	=30	=30	=30	=30	=30	=30	=30	=30
!LO:TX:a:t=P:problem=mixed beam	!	!	!	!	!	!	!	!	!	!	!	!	!
8F\L	.	8cc\L	8aa\L	8F\	om-	8d\	om-	8a\	om-	8cc\	om-	8dd\L	8ff\L
8F\	.	8dd\	8aa\	8F\	-nes	8d\	-nes	8a\	-nes	8cc\	-nes	8cc\	16ee\L
.	.	.	.	.	.	.	.	.	.	.	.	.	16dd\JJ
8G\	6	8g\	8.gg\	8.G\	Po-	8.d\	Po-	8g\	Po-	8cc\	Po-	8g\	8.dd\L
8GG/J	6	8b\J	.	.	.	.	.	8g\	-pu-	8b\	-pu-	8g\J	.
.	.	.	16ff\Jk	16GG/	-pu-	16d\	-pu-	.	.	.	.	.	16dd\Jk
=31	=31	=31	=31	=31	=31	=31	=31	=31	=31	=31	=31	=31	=31
!	!	!LO:TX:a:t=P:problem=mixed beam	!LO:TX:a:t=P:problem=mixed beam	!	!	!	!	!	!	!	!	!	!
4C/	.	8cc\L	8ee\L	4C/	-li	4e\	-li	4g\	-li	4cc\	-li	4e/	4cc\
.	.	8e/	8g/	.	.	.	.	.	.	.	.	.	.
*	*	*	*	*	*Xij	*	*	*	*	*	*	*	*
4r	.	8e/	8g/	4C/	lau-	4c\	lau-	4e\	lau-	4g\	lau-	4r	4r
.	.	8e/J	8g/J	.	.	.	.	.	.	.	.	.	.
=32	=32	=32	=32	=32	=32	=32	=32	=32	=32	=32	=32	=32	=32
!LO:N:vis=00	!	!	!	!	!	!	!	!	!	!	!	!LO:N:vis=00	!LO:N:vis=00
0r	.	8r	8r	2F\	-da-	2c\	-da-	2f\	-da-	2a\	-da-	0r	0r
.	.	8c/L	8a/L	.	.	.	.	.	.	.	.	.	.
.	.	8c/	8a/	.	.	.	.	.	.	.	.	.	.
.	.	8c/J	8a/J	.	.	.	.	.	.	.	.	.	.
=33	=33	=33	=33	=33	=33	=33	=33	=33	=33	=33	=33	=33	=33
.	.	8r	8r	2D\	.	2d\	-te	2f\	.	2cc\	.	.	.
!	!	!LO:SIC:s=8d:v	!	!	!	!	!	!	!	!	!	!	!
.	.	8c/L	8b\L	.	.	.	.	.	.	.	.	.	.
!	!	!LO:SIC:s=8d:v	!	!	!	!	!	!	!	!	!	!	!
.	.	8c/	8b\	.	.	.	.	.	.	.	.	.	.
!	!	!LO:SIC:s=8d:v	!	!	!	!	!	!	!	!	!	!	!
.	.	8c/J	8b\J	.	.	.	.	.	.	.	.	.	.
=34	=34	=34	=34	=34	=34	=34	=34	=34	=34	=34	=34	=34	=34
*	*	*	*	*	*	*	*ij	*	*	*	*	*	*
.	.	8r	8r	4C/	.	4G\	lau-	4e\	.	4cc\	-te	.	.
.	.	8e/L	8g/L	.	.	.	.	.	.	.	.	.	.
.	.	8e/	8g/	4C/	-te	4c\	.	4e\	.	4g\	lau-	.	.
.	.	8e/J	8g/J	.	.	.	.	.	.	.	.	.	.
=35	=35	=35	=35	=35	=35	=35	=35	=35	=35	=35	=35	=35	=35
.	.	8r	8r	2F\	lau-	2c\	-da-	2f\	.	2a\	-da-	.	.
.	.	8c/L	8a/L	.	.	.	.	.	.	.	.	.	.
.	.	8c/	8a/	.	.	.	.	.	.	.	.	.	.
.	.	8c/J	8a/J	.	.	.	.	.	.	.	.	.	.
!	!	!	!	!	!	!LO:LB:g=original	!	!	!	!	!	!	!
=36	=36	=36	=36	=36	=36	=36	=36	=36	=36	=36	=36	=36	=36
2r	.	8r	8r	2D\	-da-	2d\	.	2f\	.	2b\	.	2r	2r
.	.	8f/L	8b\L	.	.	.	.	.	.	.	.	.	.
.	.	8f/	8b\	.	.	.	.	.	.	.	.	.	.
!	!	!	!LO:SIC:o=vi:v	!	!	!	!	!	!	!	!	!	!
.	.	8f/J	8b\J	.	.	.	.	.	.	.	.	.	.
=37	=37	=37	=37	=37	=37	=37	=37	=37	=37	=37	=37	=37	=37
!	!	!	!LO:TX:a:t=P:problem=pod pięciolinią niezrozumiały napis, być może powiązany z "vi-de"	!	!	!	!	!	!	!	!	!	!
!	!	!	!LO:SIC:o=tre:v	!	!	!	!	!	!	!	!	!	!
!	!	!	!LO:TX:a:t=P:problem=mixed beam	!	!	!	!	!	!	!	!	!	!
!	!	!	!	!	!	!	!	!LO:SIC:s=te:v:t=sylaba 'te' powinna znajdować się pod nutą 8g	!	!	!	!	!
8r	.	16e/LL	16cc\LL	4C/	-te	4G/	-te	4e\	.	4cc\	-te	4c/	4c/
.	.	16c/	16c/	.	.	.	.	.	.	.	.	.	.
4r	.	16e/	16e/	.	.	.	.	.	.	.	.	.	.
.	.	16g/JJ	16g/JJ	.	.	.	.	.	.	.	.	.	.
*	*	*	*	*	*	*	*Xij	*	*	*	*	*	*
.	.	16c/LL	16e/LL	8r	.	8r	.	8r	.	8r	.	8r	8r
.	.	16e/	16g/	.	.	.	.	.	.	.	.	.	.
8c\	.	16g/	16cc/	8c\	lau-	8c\	-lau-	8g\	-lau-	8ee\	lau-	8cc\	8ee\
.	.	16cc/JJ	16ee/JJ	.	.	.	.	.	.	.	.	.	.
=38	=38	=38	=38	=38	=38	=38	=38	=38	=38	=38	=38	=38	=38
!	!	!	!LO:SIC:s=8gg:v	!	!	!	!	!	!	!	!	!	!
8B\L	.	8g\L	8aa\L	8B\	-da-	8B\	-da-	8g\	-da-	8dd\	-da-	8g/L	8dd\L
!	!	!	!LO:SIC:s=8gg:v	!	!	!	!	!	!	!	!	!	!
8B\	.	8dd\J	8aa\J	8B\	-te	8B\	-te	8g\	-te	8dd\	-te	8g/J	8dd\J
!	!	!LO:LB:g=original	!	!LO:LB:g=original	!	!	!	!	!	!	!	!	!
8c\	.	8ee\L	16gg\LL	8c\	eum	8c\	eum	8g\	eum	8ee\	eum	16cc\LL	16ee\LL
.	.	.	16aa\	.	.	.	.	.	.	.	.	16g\	16cc\
8c\J	.	8ee\J	16gg\	8c\	.	8c\	.	8g\	.	8ee\	.	16cc\	16ee\
!	!	!	!LO:SIC:s=16ee:v	!	!	!	!	!	!	!	!	!	!
.	.	.	16ff\JJ	.	.	.	.	.	.	.	.	16ee\JJ	16gg\JJ
!LO:LB:g=original	!	!	!	!	!	!	!	!	!	!	!	!	!
=39	=39	=39	=39	=39	=39	=39	=39	=39	=39	=39	=39	=39	=39
!LO:TX:a:t=P:problem=mixed beam	!	!	!	!	!	!	!	!	!	!	!	!	!
8F\L	.	8cc\L	2ee\	8F\	om-	8c\	om-	8a\	om-	8cc\	om-	4cc\	4aa\
8F\	.	8dd\	.	8F\	-nes	8f\	-nes	8a\	-nes	8dd\	-nes	.	.
!	!	!	!	!	!	!	!	!	!	!	!	!LO:TX:a:t=P:problem=w zródle najprawdopodniej ta grupa powinna być zakodowana jako 8. i 16	!
8G\	.	8f\	.	8.G\	Po-	8.d\	Po-	8.g\	Po-	8.b\	Po-	8g/L	8.dd\L
8GG/J	.	8b\J	.	.	.	.	.	.	.	.	.	8g/Jk	.
.	.	.	.	16GG/	-pu-	16d\	-pu-	16g\	-pu-	16b\	-pu-	.	16dd\Jk
!	!	!	!LO:TX:a:t=P:problem=w źródle zakończenie taktu w postaci wielu cienkich kresek pionowych i dwóch grubych poziomych	!	!	!	!	!	!	!	!	!	!
!	!	!	!	!	!	!	!	!	!	!LO:LB:g=original	!	!	!
=40	=40	=40	=40||	=40	=40	=40	=40	=40	=40	=40	=40	=40	=40
!	!	!	!	!	!	!	!	!	!	!	!	!	!LO:SIC:s=2ee:v
!	!	!	!LO:SIC:o=De:v	!	!	!	!	!	!	!	!	!	!
2C/	.	2cc\	8r	2C/	-li	2e\	-li	2g\	-li	2cc\	-li	2e/	2dd\
.	.	.	8cc\L	.	.	.	.	.	.	.	.	.	.
.	.	.	8cc\	.	.	.	.	.	.	.	.	.	.
!	!	!	!LO:TX:a:t=P:problem=pod pięciolinią niezrozumiały napis, być może powiązany z "vi-de"	!	!	!	!	!	!	!	!	!	!
!	!	!	!LO:SIC:o=re:v	!	!	!	!	!	!	!	!	!	!
.	.	.	8cc\J	.	.	.	.	.	.	.	.	.	.
!	!	!	!LO:LB:g=original	!	!	!	!	!	!	!	!	!	!
!	!	!LO:TX:a:t=P:problem=w źródle zakończenie taktu w postaci wielu cienkich kresek pionowych i dwóch grubych poziomych	!	!	!	!	!	!	!	!	!	!	!
=41||	=41||	=41||	=41	=41||	=41||	=41||	=41||	=41||	=41||	=41||	=41||	=41||	=41||
*M3/4	*	*M3/4	*M3/4	*M3/4	*	*M3/4	*	*M3/4	*	*M3/4	*	*M3/4	*M3/4
!	!	!	!	!LO:TX:a:i:t=Quoniam Tacet	!	!LO:TX:a:i:t=Quoniam Tacet	!	!LO:TX:a:i:t=Quoniam Tacet	!	!	!	!	!
!	!	!	!	!	!	!	!	!	!	!	!	!LO:TX:a:i:t=Tacet	!LO:TX:a:i:t=Tacet
!LO:TX:a:i:t=Solo	!	!	!	!	!	!	!	!	!	!	!	!	!
!	!	!	!	!	!	!	!	!	!	!LO:N:vis=00	!	!	!
8A\L	.	8a/L	8a/L	2.ryy	.	2.ryy	.	2.ryy	.	0.r	.	2.ryy	2.ryy
8E\J	.	8e/	8e/	.	.	.	.	.	.	.	.	.	.
4A\	.	8a/	8a/	.	.	.	.	.	.	.	.	.	.
.	.	8ee/J	8ee/J	.	.	.	.	.	.	.	.	.	.
8r	.	16ee\LL	16ee\LL	.	.	.	.	.	.	.	.	.	.
.	.	16dd\	16dd\	.	.	.	.	.	.	.	.	.	.
8G#X\	6	16cc\	16cc\	.	.	.	.	.	.	.	.	.	.
.	.	16b\JJ	16b\JJ	.	.	.	.	.	.	.	.	.	.
=42	=42	=42	=42	=42	=42	=42	=42	=42	=42	=42	=42	=42	=42
8A\L	.	8a/L	8a/L	2.ryy	.	2.ryy	.	2.ryy	.	.	.	2.ryy	2.ryy
8E\J	.	8e/	8e/	.	.	.	.	.	.	.	.	.	.
4A\	.	8a/	8a/	.	.	.	.	.	.	.	.	.	.
.	.	8ee/J	8ee/J	.	.	.	.	.	.	.	.	.	.
8r	.	16ee\LL	16ee\LL	.	.	.	.	.	.	.	.	.	.
.	.	16dd\	16dd\	.	.	.	.	.	.	.	.	.	.
8G#X\	.	16cc\	16cc\	.	.	.	.	.	.	.	.	.	.
.	.	16b\JJ	16b\JJ	.	.	.	.	.	.	.	.	.	.
=43	=43	=43	=43	=43	=43	=43	=43	=43	=43	=43	=43	=43	=43
!	!	!LO:TX:a:t=P:problem=mixed beam	!LO:TX:a:t=P:problem=mixed beam	!	!	!	!	!	!	!	!	!	!
8A\L	.	8a/L	8a/L	2.ryy	.	2.ryy	.	2.ryy	.	.	.	2.ryy	2.ryy
8E\J	.	8e/	8e/	.	.	.	.	.	.	.	.	.	.
4Fn\	.	8f/	8a/	.	.	.	.	.	.	.	.	.	.
.	.	8ff\J	8ff\J	.	.	.	.	.	.	.	.	.	.
8r	.	16ff\LL	16ff\LL	.	.	.	.	.	.	.	.	.	.
.	.	16ee\	16ee\	.	.	.	.	.	.	.	.	.	.
8F\	6 5	16dd\	16dd\	.	.	.	.	.	.	.	.	.	.
.	.	16cc\JJ	16cc\JJ	.	.	.	.	.	.	.	.	.	.
=44	=44	=44	=44	=44	=44	=44	=44	=44	=44	=44	=44	=44	=44
8G\L	.	8b\L	8b\L	2.ryy	.	2.ryy	.	2.ryy	.	.	.	2.ryy	2.ryy
8E\J	.	8g\	8g\	.	.	.	.	.	.	.	.	.	.
4C/	.	8cc\	8cc\	.	.	.	.	.	.	.	.	.	.
.	.	8ee\J	8ee\J	.	.	.	.	.	.	.	.	.	.
8r	6	16ee\LL	16ee\LL	.	.	.	.	.	.	.	.	.	.
.	.	16dd\	16dd\	.	.	.	.	.	.	.	.	.	.
8E\	5	16cc\	16cc\	.	.	.	.	.	.	.	.	.	.
.	.	16b\JJ	16b\JJ	.	.	.	.	.	.	.	.	.	.
=45	=45	=45	=45	=45	=45	=45	=45	=45	=45	=45	=45	=45	=45
!	!	!	!	!	!	!	!	!	!	!LO:N:vis=0	!	!	!
8F\L	.	8a/L	8a\L	2.ryy	.	2.ryy	.	2.ryy	.	1.r	.	2.ryy	2.ryy
8D\J	.	8e/	8e\	.	.	.	.	.	.	.	.	.	.
4BB/	.	8b/	8b\	.	.	.	.	.	.	.	.	.	.
.	.	8dd/J	8dd\J	.	.	.	.	.	.	.	.	.	.
8r	6	16dd\LL	16dd\LL	.	.	.	.	.	.	.	.	.	.
.	.	16cc\	16cc\	.	.	.	.	.	.	.	.	.	.
8D\	5	16b\	16b\	.	.	.	.	.	.	.	.	.	.
.	.	16a\JJ	16a\JJ	.	.	.	.	.	.	.	.	.	.
=46	=46	=46	=46	=46	=46	=46	=46	=46	=46	=46	=46	=46	=46
4E\	#	8g#X/L	8g#X/L	2.ryy	.	2.ryy	.	2.ryy	.	.	.	2.ryy	2.ryy
.	.	8e/	8e/	.	.	.	.	.	.	.	.	.	.
!LO:TX:a:t=P:problem=mixed beam	!	!	!	!	!	!	!	!	!	!	!	!	!
8F\L	.	8f/	8f/	.	.	.	.	.	.	.	.	.	.
8D\	.	8d/	8d/	.	.	.	.	.	.	.	.	.	.
8E\	.	8e/	8e/	.	.	.	.	.	.	.	.	.	.
8EE/J	.	8e/J	8e/J	.	.	.	.	.	.	.	.	.	.
!	!	!LO:LB:g=original	!	!	!	!	!	!	!	!	!	!	!
=47	=47	=47	=47	=47	=47	=47	=47	=47	=47	=47	=47	=47	=47
!	!	!	!	!	!	!	!	!	!	!LO:TX:a:i:t=Solo	!	!	!
4AA/	.	4A/	4A/	2.ryy	.	2.ryy	.	2.ryy	.	4.a\	Quo-	2.ryy	2.ryy
4C/	6	4r	4r	.	.	.	.	.	.	.	.	.	.
.	.	.	.	.	.	.	.	.	.	8a\	-ni-	.	.
!	!	!	!	!	!	!	!	!	!	!LO:SIC:s=am:v:t=pod nutą 4e powinen znajdować się tekst "am"	!	!	!
8r	.	4r	4r	.	.	.	.	.	.	4e/	-a	.	.
!LO:LB:g=original	!	!	!	!	!	!	!	!	!	!	!	!	!
8G#X\	6	.	.	.	.	.	.	.	.	.	.	.	.
=48	=48	=48	=48	=48	=48	=48	=48	=48	=48	=48	=48	=48	=48
!	!	!LO:TX:a:t=P:problem=mixed beam	!	!	!	!	!	!	!	!	!	!	!
8A\L	.	8a/L	8a/L	2.ryy	.	2.ryy	.	2.ryy	.	8a\	con-	2.ryy	2.ryy
8E\J	.	8e/	8e/	.	.	.	.	.	.	8e/	-fir-	.	.
4A\	.	8a/	8a/	.	.	.	.	.	.	8a\L	-ma-	.	.
.	.	8ee\J	8ee/J	.	.	.	.	.	.	8ee\J	.	.	.
8r	.	16ee\LL	16ee\LL	.	.	.	.	.	.	16ee\LL	.	.	.
.	.	16dd\	16dd\	.	.	.	.	.	.	16dd\	.	.	.
8G#X\	.	16cc\	16cc\	.	.	.	.	.	.	16cc\	.	.	.
.	.	16b\JJ	16b\JJ	.	.	.	.	.	.	16b\JJ	.	.	.
!	!	!	!LO:LB:g=original	!	!	!	!	!	!	!	!	!	!
=49	=49	=49	=49	=49	=49	=49	=49	=49	=49	=49	=49	=49	=49
!	!	!LO:TX:a:t=P:problem=mixed beam	!LO:TX:a:t=P:problem=mixed beam	!	!	!	!	!	!	!	!	!	!
8A\L	.	8a/L	8a/L	2.ryy	.	2.ryy	.	2.ryy	.	8.cc\L	-ta	2.ryy	2.ryy
8E\J	.	8e/	8e/	.	.	.	.	.	.	.	.	.	.
.	.	.	.	.	.	.	.	.	.	16b\Jk	.	.	.
4A\	.	8a/	8a/	.	.	.	.	.	.	4a\	est	.	.
.	.	8ee\J	8ee\J	.	.	.	.	.	.	.	.	.	.
8r	6	16ee\LL	16ee\LL	.	.	.	.	.	.	4r	.	.	.
.	.	16dd\	16dd\	.	.	.	.	.	.	.	.	.	.
8F\	5	16cc\	16cc\	.	.	.	.	.	.	.	.	.	.
.	.	16b\JJ	16b\JJ	.	.	.	.	.	.	.	.	.	.
=50	=50	=50	=50	=50	=50	=50	=50	=50	=50	=50	=50	=50	=50
!	!	!LO:TX:a:t=P:problem=mixed beam	!LO:TX:a:t=P:problem=mixed beam	!	!	!	!	!	!	!	!	!	!
8G\L	.	8a/L	8a/L	2.ryy	.	2.ryy	.	2.ryy	.	0.r	.	2.ryy	2.ryy
8E\J	.	8e/	8e/	.	.	.	.	.	.	.	.	.	.
4C/	.	8f/	8f/	.	.	.	.	.	.	.	.	.	.
.	.	8ff\J	8ff\J	.	.	.	.	.	.	.	.	.	.
8r	6	16ff\LL	16ff\LL	.	.	.	.	.	.	.	.	.	.
.	.	16ee\	16ee\	.	.	.	.	.	.	.	.	.	.
8E\	5	16dd\	16dd\	.	.	.	.	.	.	.	.	.	.
.	.	16cc\JJ	16cc\JJ	.	.	.	.	.	.	.	.	.	.
=51	=51	=51	=51	=51	=51	=51	=51	=51	=51	=51	=51	=51	=51
8F\L	.	8b\L	8b\L	2.ryy	.	2.ryy	.	2.ryy	.	.	.	2.ryy	2.ryy
!	!	!LO:SIC:s=8g:v	!	!	!	!	!	!	!	!	!	!	!
8D\J	.	8e\	8g\	.	.	.	.	.	.	.	.	.	.
4BB/	.	8cc\	8cc\	.	.	.	.	.	.	.	.	.	.
.	.	8ee\J	8ee\J	.	.	.	.	.	.	.	.	.	.
8r	6	16ee\LL	16ee\LL	.	.	.	.	.	.	.	.	.	.
.	.	16dd\	16dd\	.	.	.	.	.	.	.	.	.	.
8D\	5	16cc\	16cc\	.	.	.	.	.	.	.	.	.	.
.	.	16b\JJ	16b\JJ	.	.	.	.	.	.	.	.	.	.
=52	=52	=52	=52	=52	=52	=52	=52	=52	=52	=52	=52	=52	=52
4E\	#	8a/L	8a/L	2.ryy	.	2.ryy	.	2.ryy	.	.	.	2.ryy	2.ryy
.	.	8e/	8e/	.	.	.	.	.	.	.	.	.	.
8F\L	.	8b/	8b/	.	.	.	.	.	.	.	.	.	.
8D\	.	8dd/J	8dd/J	.	.	.	.	.	.	.	.	.	.
!LO:TX:a:t=P:problem=w źródle ukośnik między 4 a 3 w cyfrowaniu	!	!	!	!	!	!	!	!	!	!	!	!	!
8E\	4	16dd\LL	16dd\LL	.	.	.	.	.	.	.	.	.	.
.	.	16cc\	16cc\	.	.	.	.	.	.	.	.	.	.
8EE\J	3	16b\	16b\	.	.	.	.	.	.	.	.	.	.
.	.	16a\JJ	16a\JJ	.	.	.	.	.	.	.	.	.	.
=53	=53	=53	=53	=53	=53	=53	=53	=53	=53	=53	=53	=53	=53
4AA/	.	8g#X/L	8g#X/L	2.ryy	.	2.ryy	.	2.ryy	.	.	.	2.ryy	2.ryy
.	.	8e/	8e/	.	.	.	.	.	.	.	.	.	.
4r	.	8f/	8f/	.	.	.	.	.	.	.	.	.	.
.	.	8d/	8d/	.	.	.	.	.	.	.	.	.	.
4r	.	8e/	8e/	.	.	.	.	.	.	.	.	.	.
.	.	8e/J	8e/J	.	.	.	.	.	.	.	.	.	.
=54	=54	=54	=54	=54	=54	=54	=54	=54	=54	=54	=54	=54	=54
4AA/	6	4A/	4A/	2.ryy	.	2.ryy	.	2.ryy	.	4.a\	Quo-	2.ryy	2.ryy
4C/	.	4r	4r	.	.	.	.	.	.	.	.	.	.
.	.	.	.	.	.	.	.	.	.	8a\	-ni-	.	.
8r	.	4r	4r	.	.	.	.	.	.	4e/	-am	.	.
8G#X\	6	.	.	.	.	.	.	.	.	.	.	.	.
=55	=55	=55	=55	=55	=55	=55	=55	=55	=55	=55	=55	=55	=55
!	!	!LO:TX:a:t=P:problem=mixed beam	!LO:TX:a:t=P:problem=mixed beam	!	!	!	!	!	!	!	!	!	!
8A\L	.	8a/L	8a/L	2.ryy	.	2.ryy	.	2.ryy	.	8a\	con-	2.ryy	2.ryy
8E\J	.	8e/	8e/	.	.	.	.	.	.	8e/	-fir-	.	.
4AA/	.	8a/	8a/	.	.	.	.	.	.	8a\L	-ma-	.	.
.	.	8ee\J	8ee\J	.	.	.	.	.	.	8ee\J	.	.	.
4C/	.	16ee\LL	16ee\LL	.	.	.	.	.	.	16ee\LL	.	.	.
.	.	16dd\	16dd\	.	.	.	.	.	.	16dd\	.	.	.
.	.	16cc\	16cc\	.	.	.	.	.	.	16cc\	.	.	.
.	.	16b\JJ	16b\JJ	.	.	.	.	.	.	16b\JJ	.	.	.
!	!	!LO:LB:g=original	!	!	!	!	!	!	!	!	!	!	!
=56	=56	=56	=56	=56	=56	=56	=56	=56	=56	=56	=56	=56	=56
4D\	.	8a/L	8a/L	2.ryy	.	2.ryy	.	2.ryy	.	8.cc\	.	2.ryy	2.ryy
.	.	8e/J	8e/J	.	.	.	.	.	.	.	.	.	.
.	.	.	.	.	.	.	.	.	.	16b\	-ta	.	.
8r	.	4a\	4a/	.	.	.	.	.	.	4a\	est	.	.
8D/L	.	.	.	.	.	.	.	.	.	.	.	.	.
8BB/	.	4c/	4c/	.	.	.	.	.	.	8e/	su-	.	.
8GG/J	.	.	.	.	.	.	.	.	.	8e/	-per	.	.
!LO:LB:g=original	!	!	!	!	!	!	!	!	!	!	!	!	!
=57	=57	=57	=57	=57	=57	=57	=57	=57	=57	=57	=57	=57	=57
4C/	.	4d/	4d/	2.ryy	.	2.ryy	.	2.ryy	.	4f/	nos	2.ryy	2.ryy
8r	.	4d/	4d/	.	.	.	.	.	.	8r	.	.	.
!	!	!	!	!	!	!	!	!	!	!LO:LB:g=original	!	!	!
8E\L	.	.	.	.	.	.	.	.	.	8f/	mi-	.	.
8F\	.	4B/	4B/	.	.	.	.	.	.	8f/	-se-	.	.
8D\J	.	.	.	.	.	.	.	.	.	8f/	-ri	.	.
!	!	!	!LO:LB:g=original	!	!	!	!	!	!	!	!	!	!
=58	=58	=58	=58	=58	=58	=58	=58	=58	=58	=58	=58	=58	=58
!	!	!	!	!	!	!	!	!	!	!LO:SIC:s=8.e:v	!	!	!
4E\	6	4c/	4c/	2.ryy	.	2.ryy	.	2.ryy	.	8.f/	cor-	2.ryy	2.ryy
.	.	.	.	.	.	.	.	.	.	16e/	-di-	.	.
4F\	6 5	8r	8r	.	.	.	.	.	.	8e/	-a	.	.
!	!	!	!	!	!	!	!	!	!	!LO:TX:t=P:problem:problem=w źródle tekst "miseri cordia" powtórzony i zanotowany jako repetycja	!	!	!
*	*	*	*	*	*	*	*	*	*	*	*ij	*	*
.	.	8e/L	8e/L	.	.	.	.	.	.	8gn\	mi-	.	.
4G\	.	8f/	8f/	.	.	.	.	.	.	8a\	-se-	.	.
.	.	8d/J	8d/J	.	.	.	.	.	.	8b\	-ri	.	.
=59	=59	=59	=59	=59	=59	=59	=59	=59	=59	=59	=59	=59	=59
8c\L	.	4e/	4e/	2.ryy	.	2.ryy	.	2.ryy	.	4cc\	cor-	2.ryy	2.ryy
8G\J	.	.	.	.	.	.	.	.	.	.	.	.	.
4c\	.	4f/	4f/	.	.	.	.	.	.	8dd\	-di-	.	.
.	.	.	.	.	.	.	.	.	.	8ee\	-a	.	.
*	*	*	*	*	*	*	*	*	*	*	*Xij	*	*
8r	.	4g/	4g/	.	.	.	.	.	.	4b\	e-	.	.
8B\	.	.	.	.	.	.	.	.	.	.	.	.	.
=60	=60	=60	=60	=60	=60	=60	=60	=60	=60	=60	=60	=60	=60
8c\L	.	8cc\L	8cc\L	2.ryy	.	2.ryy	.	2.ryy	.	4cc\	-jus	2.ryy	2.ryy
8G\J	.	8g\	8g\	.	.	.	.	.	.	.	.	.	.
4C/	.	8cc\	8cc\	.	.	.	.	.	.	4r	.	.	.
.	.	8gg\J	8gg\J	.	.	.	.	.	.	.	.	.	.
8r	.	16gg\LL	16gg\LL	.	.	.	.	.	.	4r	.	.	.
.	.	16ff\	16ff\	.	.	.	.	.	.	.	.	.	.
8B\	.	16ee\	16ee\	.	.	.	.	.	.	.	.	.	.
.	.	16dd\JJ	16dd\JJ	.	.	.	.	.	.	.	.	.	.
=61	=61	=61	=61	=61	=61	=61	=61	=61	=61	=61	=61	=61	=61
!	!	!LO:TX:a:t=P:problem=mixed beam	!LO:TX:a:t=P:problem=mixed beam	!	!	!	!	!	!	!	!	!	!
!	!	!LO:SIC:s=8cc:v	!	!	!	!	!	!	!	!	!	!	!
!	!	!	!	!	!	!	!	!	!	!LO:N:vis=00	!	!	!
8c\L	.	8dd\L	8cc\L	2.ryy	.	2.ryy	.	2.ryy	.	0.r	.	2.ryy	2.ryy
8G\J	.	8G/	8G/	.	.	.	.	.	.	.	.	.	.
4A\	.	8c/	8c/	.	.	.	.	.	.	.	.	.	.
.	.	8g/J	8g/J	.	.	.	.	.	.	.	.	.	.
8r	.	16g/LL	16g/LL	.	.	.	.	.	.	.	.	.	.
.	.	16f/	16f/	.	.	.	.	.	.	.	.	.	.
8c\	65	16e/	16e/	.	.	.	.	.	.	.	.	.	.
.	.	16d/JJ	16d/JJ	.	.	.	.	.	.	.	.	.	.
=62	=62	=62	=62	=62	=62	=62	=62	=62	=62	=62	=62	=62	=62
!	!	!LO:TX:a:t=P:problem=mixed beam	!LO:TX:a:t=P:problem=mixed beam	!	!	!	!	!	!	!	!	!	!
8d\L	.	8c/L	8c/L	2.ryy	.	2.ryy	.	2.ryy	.	.	.	2.ryy	2.ryy
8B\J	.	8G/	8G/	.	.	.	.	.	.	.	.	.	.
!	!	!LO:SIC:s=8A:v	!	!	!	!	!	!	!	!	!	!	!
4G\	.	8B/	8A/	.	.	.	.	.	.	.	.	.	.
.	.	8aa/J	8aa\J	.	.	.	.	.	.	.	.	.	.
8r	.	16aa\LL	16aa\LL	.	.	.	.	.	.	.	.	.	.
.	.	16gg\	16gg\	.	.	.	.	.	.	.	.	.	.
8B\	.	16ff\	16ff\	.	.	.	.	.	.	.	.	.	.
.	.	16ee\JJ	16ee\JJ	.	.	.	.	.	.	.	.	.	.
=63	=63	=63	=63	=63	=63	=63	=63	=63	=63	=63	=63	=63	=63
8c\L	.	8ff\L	8ff\L	2.ryy	.	2.ryy	.	2.ryy	.	.	.	2.ryy	2.ryy
8F\J	.	8dd\	8dd\	.	.	.	.	.	.	.	.	.	.
4G\	.	8b\	8b\	.	.	.	.	.	.	.	.	.	.
.	.	8gg\J	8gg\J	.	.	.	.	.	.	.	.	.	.
4GG/	.	16gg\LL	16gg\LL	.	.	.	.	.	.	.	.	.	.
.	.	16ff\	16ff\	.	.	.	.	.	.	.	.	.	.
.	.	16ee\	16ee\	.	.	.	.	.	.	.	.	.	.
.	.	16dd\JJ	16dd\JJ	.	.	.	.	.	.	.	.	.	.
=64	=64	=64	=64	=64	=64	=64	=64	=64	=64	=64	=64	=64	=64
4C/	.	8ee\L	8ee\L	2.ryy	.	2.ryy	.	2.ryy	.	.	.	2.ryy	2.ryy
.	.	8cc\J	8cc\J	.	.	.	.	.	.	.	.	.	.
4r	.	4g/	4g/	.	.	.	.	.	.	.	.	.	.
4r	.	4b\	4b\	.	.	.	.	.	.	.	.	.	.
!	!	!LO:LB:g=original	!	!	!	!	!	!	!	!	!	!	!
=65	=65	=65	=65	=65	=65	=65	=65	=65	=65	=65	=65	=65	=65
4C\	.	4cc\	4cc\	2.ryy	.	2.ryy	.	2.ryy	.	4.a\	Quo-	2.ryy	2.ryy
4E\	.	4r	4r	.	.	.	.	.	.	.	.	.	.
.	.	.	.	.	.	.	.	.	.	8a\	-ni-	.	.
8r	.	4r	4r	.	.	.	.	.	.	4e\	-am	.	.
8B\	.	.	.	.	.	.	.	.	.	.	.	.	.
=66	=66	=66	=66	=66	=66	=66	=66	=66	=66	=66	=66	=66	=66
8c\L	.	8cc\L	8cc\L	2.ryy	.	2.ryy	.	2.ryy	.	8cc\	con-	2.ryy	2.ryy
8G\J	.	8g\	8g\	.	.	.	.	.	.	8g\	-fir-	.	.
4C\	.	8cc\	8cc\	.	.	.	.	.	.	8cc\L	-ma-	.	.
.	.	8gg\J	8gg\J	.	.	.	.	.	.	8gg\J	.	.	.
4E\	.	16gg\LL	16gg\LL	.	.	.	.	.	.	16gg\LL	.	.	.
.	.	16ff\	16ff\	.	.	.	.	.	.	16ff\	.	.	.
.	.	16ee\	16ee\	.	.	.	.	.	.	16ee\	.	.	.
.	.	16dd\JJ	16dd\JJ	.	.	.	.	.	.	16dd\JJ	.	.	.
!LO:LB:g=original	!	!	!LO:LB:g=original	!	!	!	!	!	!	!	!	!	!
=67	=67	=67	=67	=67	=67	=67	=67	=67	=67	=67	=67	=67	=67
4F\	.	8cc\L	8cc\L	2.ryy	.	2.ryy	.	2.ryy	.	8.ee\	-ta	2.ryy	2.ryy
.	.	8g\J	8g\J	.	.	.	.	.	.	.	.	.	.
.	.	.	.	.	.	.	.	.	.	16dd\	est	.	.
4r	.	4cc\	4cc\	.	.	.	.	.	.	4cc\	.	.	.
4D\	#	4e/	4e/	.	.	.	.	.	.	8g\	su-	.	.
.	.	.	.	.	.	.	.	.	.	8g\	-per	.	.
=68	=68	=68	=68	=68	=68	=68	=68	=68	=68	=68	=68	=68	=68
4G\	.	4f/	4f/	2.ryy	.	2.ryy	.	2.ryy	.	4a\	nos	2.ryy	2.ryy
4B\	.	4f/	4f/	.	.	.	.	.	.	8r	.	.	.
!	!	!	!	!	!	!	!	!	!	!LO:LB:g=original	!	!	!
.	.	.	.	.	.	.	.	.	.	8a\	mi-	.	.
4G\	.	4f#X/	4f#X/	.	.	.	.	.	.	8a\	-se-	.	.
.	.	.	.	.	.	.	.	.	.	8a\	-ri	.	.
=69	=69	=69	=69	=69	=69	=69	=69	=69	=69	=69	=69	=69	=69
!	!	!LO:TX:a:t=P:problem=mixed beam	!LO:TX:a:t=P:problem=mixed beam	!	!	!	!	!	!	!	!	!	!
4E\	.	8g/L	8g/L	2.ryy	.	2.ryy	.	2.ryy	.	8.bn\	cor-	2.ryy	2.ryy
.	.	8e/	8e/	.	.	.	.	.	.	.	.	.	.
.	.	.	.	.	.	.	.	.	.	16a\	-dia	.	.
!LO:SIC:s=4G:v	!	!	!	!	!	!	!	!	!	!	!	!	!
4G#\	.	8g/	8g/	.	.	.	.	.	.	4g\	.	.	.
.	.	8dd\J	8dd\J	.	.	.	.	.	.	.	.	.	.
4E\	.	16dd\LL	16dd\LL	.	.	.	.	.	.	8b\	su-	.	.
.	.	16cc\	16cc\	.	.	.	.	.	.	.	.	.	.
.	.	16b\	16b\	.	.	.	.	.	.	8b\	-per	.	.
.	.	16a\JJ	16a\JJ	.	.	.	.	.	.	.	.	.	.
=70	=70	=70	=70	=70	=70	=70	=70	=70	=70	=70	=70	=70	=70
!	!	!LO:TX:a:t=P:problem=mixed beam	!	!	!	!	!	!	!	!	!	!	!
8A\L	.	8g/L	8g/L	2.ryy	.	2.ryy	.	2.ryy	.	4b\	nos	2.ryy	2.ryy
8E\J	.	8e/	8e/J	.	.	.	.	.	.	.	.	.	.
4AA/	.	8b\	8b\L	.	.	.	.	.	.	8r	.	.	.
.	.	8ee\J	8ee\J	.	.	.	.	.	.	8b\	mi-	.	.
4r	.	16ee\LL	16ee\LL	.	.	.	.	.	.	16cc\LL	-se-	.	.
.	.	16dd\	16dd\	.	.	.	.	.	.	16dd\JJ	-ri	.	.
!	!	!	!	!	!	!	!	!	!	!LO:SIC:s=ri:v:t=pod nutą 16cc powinen znajdować się tekst "ri"	!	!	!
.	.	16cc\	16cc\	.	.	.	.	.	.	16cc\LL	.	.	.
.	.	16b\JJ	16b\JJ	.	.	.	.	.	.	16b\JJ	.	.	.
=71	=71	=71	=71	=71	=71	=71	=71	=71	=71	=71	=71	=71	=71
!	!	!LO:TX:a:t=P:problem=mixed beam	!	!	!	!	!	!	!	!	!	!	!
!LO:N:vis=0	!	!	!	!	!	!	!	!	!	!	!	!	!
1.r	.	8a\L	8a/L	2.ryy	.	2.ryy	.	2.ryy	.	8.cc\	cor-	2.ryy	2.ryy
.	.	8d/J	8d/J	.	.	.	.	.	.	.	.	.	.
.	.	.	.	.	.	.	.	.	.	16b\	-dia	.	.
.	.	4a\	4a/	.	.	.	.	.	.	8a\	.	.	.
.	.	.	.	.	.	.	.	.	.	8ee\	et	.	.
.	.	8g\L	8g/L	.	.	.	.	.	.	4ee\	ve-	.	.
.	.	8a\J	8a/J	.	.	.	.	.	.	.	.	.	.
=72	=72	=72	=72	=72	=72	=72	=72	=72	=72	=72	=72	=72	=72
.	.	4b\	4b\	2.ryy	.	2.ryy	.	2.ryy	.	8dd#X\	-ritas	2.ryy	2.ryy
.	.	.	.	.	.	.	.	.	.	8dd#\	.	.	.
.	.	8g\L	8g\L	.	.	.	.	.	.	8.ee\	Do-	.	.
.	.	8a\J	8a\J	.	.	.	.	.	.	.	.	.	.
.	.	.	.	.	.	.	.	.	.	16ee\	-mi-	.	.
.	.	4b\	4b\	.	.	.	.	.	.	4dd#X\	-ni	.	.
=73	=73	=73	=73	=73	=73	=73	=73	=73	=73	=73	=73	=73	=73
2.r	.	8r	8r	2.ryy	.	2.ryy	.	2.ryy	.	8r	.	2.ryy	2.ryy
.	.	16cc\LL	16cc\LL	.	.	.	.	.	.	16cc\LL	ma-	.	.
.	.	16b\JJ	16b\JJ	.	.	.	.	.	.	16b\JJ	.	.	.
.	.	8a\L	8a\L	.	.	.	.	.	.	8a\L	.	.	.
.	.	8dd#X\J	8dd#X\J	.	.	.	.	.	.	8dd#X\J	.	.	.
.	.	4ee\	4ee\	.	.	.	.	.	.	4ee\	-net	.	.
!	!	!LO:LB:g=original	!	!	!	!	!	!	!	!	!	!	!
=74	=74	=74	=74	=74	=74	=74	=74	=74	=74	=74	=74	=74	=74
4D#X\	.	8r	8r	2.ryy	.	2.ryy	.	2.ryy	.	8r	.	2.ryy	2.ryy
*	*	*	*	*	*	*	*	*	*	*	*ij	*	*
.	.	16cc\LL	16cc\LL	.	.	.	.	.	.	16cc\LL	ma-	.	.
.	.	16b\JJ	16b\JJ	.	.	.	.	.	.	16b\JJ	.	.	.
8r	.	8a\L	8a\L	.	.	.	.	.	.	8a\L	.	.	.
8B\L	#	8dd#X\J	8dd#X\J	.	.	.	.	.	.	8dd#X\J	.	.	.
8G\	n	4ee\	4ee\	.	.	.	.	.	.	4ee\	-net	.	.
8E\J	.	.	.	.	.	.	.	.	.	.	.	.	.
!	!	!	!	!	!	!	!	!	!	!LO:LB:g=original	!	!	!
=75	=75	=75	=75	=75	=75	=75	=75	=75	=75	=75	=75	=75	=75
4D#X\	.	8r	8r	2.ryy	.	2.ryy	.	2.ryy	.	8r	.	2.ryy	2.ryy
.	.	16cc\LL	16cc\LL	.	.	.	.	.	.	16cc\LL	ma-	.	.
.	.	16b\JJ	16b\JJ	.	.	.	.	.	.	16b\JJ	.	.	.
!	!	!	!LO:LB:g=original	!	!	!	!	!	!	!	!	!	!
8r	.	8a\L	8a\L	.	.	.	.	.	.	8a\L	.	.	.
8B\L	.	8dd#X\J	8dd#X\J	.	.	.	.	.	.	8dd#X\J	.	.	.
8G\	.	4ee\	4ee\	.	.	.	.	.	.	4ee\	-net	.	.
8E\J	.	.	.	.	.	.	.	.	.	.	.	.	.
*	*	*	*	*	*	*	*	*	*	*	*Xij	*	*
=76	=76	=76	=76	=76	=76	=76	=76	=76	=76	=76	=76	=76	=76
8c\L	.	8ee\L	8ee\L	2.ryy	.	2.ryy	.	2.ryy	.	8ee\	in	2.ryy	2.ryy
8A\J	.	8ff#X\J	8ff#X\J	.	.	.	.	.	.	8ff#X\	ae-	.	.
.	.	.	.	.	.	.	.	.	.	8qqee/	.	.	.
!LO:TX:a:t=P:problem=w źródle ukośnik między 4 a 3 w cyfrowaniu	!	!	!	!	!	!	!	!	!	!	!	!	!
4B\	4	2dd#X\	2dd#X\	.	.	.	.	.	.	2dd#X\	-ter-	.	.
4BB/	3	.	.	.	.	.	.	.	.	.	.	.	.
=77	=77	=77	=77	=77	=77	=77	=77	=77	=77	=77	=77	=77	=77
4E\	.	4ee\	4ee\	2.ryy	.	2.ryy	.	2.ryy	.	8ee\	-num	2.ryy	2.ryy
.	.	.	.	.	.	.	.	.	.	16b\LL	.	.	.
.	.	.	.	.	.	.	.	.	.	16a\JJ	ma-	.	.
8r	.	8r	8r	.	.	.	.	.	.	4g#X\	.	.	.
8G#X\L	.	8g#X/L	8g#X\L	.	.	.	.	.	.	.	.	.	.
!	!	!LO:SIC:s=8b:v	!	!	!	!	!	!	!	!	!	!	!
8B\	.	8a/	8b\	.	.	.	.	.	.	4ddn\	-net	.	.
8G#\J	.	8g#/J	8g#\J	.	.	.	.	.	.	.	.	.	.
=78	=78	=78	=78	=78	=78	=78	=78	=78	=78	=78	=78	=78	=78
4A\	.	4e/	4e/	2.ryy	.	2.ryy	.	2.ryy	.	8r	.	2.ryy	2.ryy
*	*	*	*	*	*	*	*	*	*	*	*ij	*	*
.	.	.	.	.	.	.	.	.	.	16cc\LL	ma-	.	.
.	.	.	.	.	.	.	.	.	.	16b\JJ	.	.	.
8r	.	8r	8r	.	.	.	.	.	.	8a\L	.	.	.
8A\L	.	8cc\L	8cc\L	.	.	.	.	.	.	8cc\J	.	.	.
8G#X\	.	8b\	8b\	.	.	.	.	.	.	4ee\	-net	.	.
8F#X\J	.	8a\J	8a\J	.	.	.	.	.	.	.	.	.	.
=79	=79	=79	=79	=79	=79	=79	=79	=79	=79	=79	=79	=79	=79
4E\	#	4g#X/	4g#X/	2.ryy	.	2.ryy	.	2.ryy	.	8r	.	2.ryy	2.ryy
.	.	.	.	.	.	.	.	.	.	16g#X/LL	ma-	.	.
.	.	.	.	.	.	.	.	.	.	16f#X/JJ	.	.	.
8r	.	4r	4r	.	.	.	.	.	.	8eL\	-net	.	.
8E\L	.	.	.	.	.	.	.	.	.	8g#J	.	.	.
*	*	*	*	*	*	*	*	*	*	*	*Xij	*	*
8C\	.	4r	4r	.	.	.	.	.	.	4a\	in	.	.
8AA\J	.	.	.	.	.	.	.	.	.	.	.	.	.
!LO:LB:g=original	!	!	!	!	!	!	!	!	!	!	!	!	!
=80	=80	=80	=80	=80	=80	=80	=80	=80	=80	=80	=80	=80	=80
8F\L	.	2.r	2.r	2.ryy	.	2.ryy	.	2.ryy	.	8a\	ae-	2.ryy	2.ryy
8D\J	.	.	.	.	.	.	.	.	.	8b\	-ter-	.	.
.	.	.	.	.	.	.	.	.	.	8qqa/L	.	.	.
.	.	.	.	.	.	.	.	.	.	8qqb/J	.	.	.
4E\	.	.	.	.	.	.	.	.	.	2g#X\	.	.	.
4EE/	.	.	.	.	.	.	.	.	.	.	.	.	.
=81	=81	=81	=81	=81	=81	=81	=81	=81	=81	=81	=81	=81	=81
!	!	!LO:TX:a:t=P:problem=mixed beam	!LO:TX:a:t=P:problem=mixed beam	!	!	!	!	!	!	!	!	!	!
8A\L	.	8a/L	8a/L	2.ryy	.	2.ryy	.	2.ryy	.	8a\	-num	2.ryy	2.ryy
8E\J	.	8e/	8e/	.	.	.	.	.	.	8ryy	.	.	.
4A\	.	8a/	8a/	.	.	.	.	.	.	4r	.	.	.
.	.	8ee\J	8ee\J	.	.	.	.	.	.	.	.	.	.
8r	.	16ee\LL	16ee\LL	.	.	.	.	.	.	4r	.	.	.
.	.	16dd\	16dd\	.	.	.	.	.	.	.	.	.	.
8G#X\	.	16cc\	16cc\	.	.	.	.	.	.	.	.	.	.
.	.	16b\JJ	16b\JJ	.	.	.	.	.	.	.	.	.	.
=82	=82	=82	=82	=82	=82	=82	=82	=82	=82	=82	=82	=82	=82
!	!	!LO:TX:a:t=P:problem=mixed beam	!LO:TX:a:t=P:problem=mixed beam	!	!	!	!	!	!	!	!	!	!
!	!	!	!	!	!	!	!	!	!	!LO:N:vis=00	!	!	!
8A\L	.	8a/L	8a/L	2.ryy	.	2.ryy	.	2.ryy	.	0.r	.	2.ryy	2.ryy
8E\J	.	8e/	8e/	.	.	.	.	.	.	.	.	.	.
4A\	.	8a/	8a/	.	.	.	.	.	.	.	.	.	.
.	.	8ee/J	8ee\J	.	.	.	.	.	.	.	.	.	.
8r	.	16ee\LL	16ee\LL	.	.	.	.	.	.	.	.	.	.
.	.	16dd\	16dd\	.	.	.	.	.	.	.	.	.	.
8G#X\	.	16cc\	16cc\	.	.	.	.	.	.	.	.	.	.
.	.	16b\JJ	16b\JJ	.	.	.	.	.	.	.	.	.	.
!	!	!LO:LB:g=original	!	!	!	!	!	!	!	!	!	!	!
=83	=83	=83	=83	=83	=83	=83	=83	=83	=83	=83	=83	=83	=83
!	!	!LO:TX:a:t=P:problem=mixed beam	!LO:TX:a:t=P:problem=mixed beam	!	!	!	!	!	!	!	!	!	!
8A\L	.	8a/L	8a/L	2.ryy	.	2.ryy	.	2.ryy	.	.	.	2.ryy	2.ryy
8E\J	.	8e/	8e/	.	.	.	.	.	.	.	.	.	.
4F\	.	8f/	8a/	.	.	.	.	.	.	.	.	.	.
.	.	8ff\J	8ff\J	.	.	.	.	.	.	.	.	.	.
8r	.	16ff\LL	16ff\LL	.	.	.	.	.	.	.	.	.	.
.	.	16ee\	16ee\	.	.	.	.	.	.	.	.	.	.
8F\	65	16dd\	16dd\	.	.	.	.	.	.	.	.	.	.
.	.	16cc\JJ	16cc\JJ	.	.	.	.	.	.	.	.	.	.
!	!	!	!LO:LB:g=original	!	!	!	!	!	!	!	!	!	!
=84	=84	=84	=84	=84	=84	=84	=84	=84	=84	=84	=84	=84	=84
8G\L	.	8b\L	8b\L	2.ryy	.	2.ryy	.	2.ryy	.	.	.	2.ryy	2.ryy
8E\J	.	8g\	8g\	.	.	.	.	.	.	.	.	.	.
!	!	!	!LO:SIC:s=8cc:v	!	!	!	!	!	!	!	!	!	!
4C/	.	8cc\	8b\	.	.	.	.	.	.	.	.	.	.
.	.	8ee\J	8ee\J	.	.	.	.	.	.	.	.	.	.
8r	.	16ee\LL	16ee\LL	.	.	.	.	.	.	.	.	.	.
.	.	16dd\	16dd\	.	.	.	.	.	.	.	.	.	.
8E\	65	16cc\	16cc\	.	.	.	.	.	.	.	.	.	.
.	.	16b\JJ	16b\JJ	.	.	.	.	.	.	.	.	.	.
=85	=85	=85	=85	=85	=85	=85	=85	=85	=85	=85	=85	=85	=85
8F\L	.	8a/L	8a\L	2.ryy	.	2.ryy	.	2.ryy	.	.	.	2.ryy	2.ryy
!	!	!LO:SIC:s=8f:v	!LO:SIC:s=8f:v	!	!	!	!	!	!	!	!	!	!
8D\J	.	8e/	8e\	.	.	.	.	.	.	.	.	.	.
!	!	!	!LO:SIC:s=8b:v	!	!	!	!	!	!	!	!	!	!
4BB\	.	8b/	8a\	.	.	.	.	.	.	.	.	.	.
.	.	8dd/J	8dd\J	.	.	.	.	.	.	.	.	.	.
8r	.	16dd\LL	16dd\LL	.	.	.	.	.	.	.	.	.	.
.	.	16cc\	16cc\	.	.	.	.	.	.	.	.	.	.
8D\	65	16b\	16b\	.	.	.	.	.	.	.	.	.	.
.	.	16a\JJ	16a\JJ	.	.	.	.	.	.	.	.	.	.
=86	=86	=86	=86	=86	=86	=86	=86	=86	=86	=86	=86	=86	=86
!	!	!	!	!	!	!	!	!	!	!LO:N:vis=0	!	!	!
4E\	.	8g#X/L	8g#X/L	2.ryy	.	2.ryy	.	2.ryy	.	1.r	.	2.ryy	2.ryy
.	.	8e/	8e/	.	.	.	.	.	.	.	.	.	.
!LO:TX:a:t=P:problem=mixed beam	!	!	!	!	!	!	!	!	!	!	!	!	!
8F\L	.	8f/	8f/	.	.	.	.	.	.	.	.	.	.
8D\	.	8d/	8d/	.	.	.	.	.	.	.	.	.	.
8E\	.	8e/	8e/	.	.	.	.	.	.	.	.	.	.
8EE/J	.	8e/J	8e/J	.	.	.	.	.	.	.	.	.	.
=87	=87	=87	=87	=87	=87	=87	=87	=87	=87	=87	=87	=87	=87
!	!	!	!LO:TX:a:t=P:problem=w źródle zakończenie taktu w postaci wielu cienkich kresek pionowych i dwóch grubych poziomych	!	!	!	!	!	!	!	!	!	!
2AA/	.	2.A/	2.A/	2.ryy	.	2.ryy	.	2.ryy	.	.	.	2.ryy	2.ryy
4r	.	.	.	.	.	.	.	.	.	.	.	.	.
!	!	!	!	!	!	!	!	!	!	!LO:LB:g=original	!	!	!
!	!	!LO:TX:a:t=P:problem=w źródle zakończenie taktu w postaci wielu cienkich kresek pionowych i dwóch grubych poziomych	!	!	!	!	!	!	!	!	!	!	!
!	!	!	!LO:LB:g=original	!	!	!	!	!LO:LB:g=original	!	!	!	!	!
=||	=||	=||	=||	=||	=||	=||	=||	=||	=||	=||	=||	=||	=||
*M2/2	*	*M4/4	*M4/4	*M2/2	*	*M2/2	*	*M2/2	*	*M2/2	*	*M2/2	*M2/2
*met(c|)	*	*met(c)	*met(c)	*met(c|)	*	*met(c|)	*	*met(c|)	*	*met(c|)	*	*met(c|)	*met(c|)
!LO:TX:a:i:t=Adagio	!	!	!	!	!	!LO:TX:a:i:t=Adagio	!	!LO:TX:a:i:t=Tarde	!	!LO:TX:a:i:t=Adagio	!	!	!LO:TX:a:B:t=Adagio
!LO:TX:b:i:t=Gloria	!	!	!	!	!	!	!	!	!	!	!	!	!
!LO:SIC:o=b:v:t=znak po kluczu przed oznaczeniem metrum nad pięciolinią	!	!	!	!	!	!	!	!	!	!	!	!	!
4.F\	.	4.a/	4.ff\	4.F\	Glo-	4.c\	Glo-	4.f\	Glo-	4.a\	Glo-	4.c/	4..cc\
8F\	.	8a/	8ff\	8F\	-ria	8c\	-ria	8f\	-ria	8a\	-ria	8c/	.
.	.	.	.	.	.	.	.	.	.	.	.	.	16cc\
!	!	!	!	!	!	!	!	!	!	!	!	!	!LO:SIC:s=4cc:v
4F\	.	4a/	4ff\	4F\	.	4c\	.	4f\	.	4a\	.	4c/	4dd\
4r	.	4r	4r	4r	.	4r	.	4r	.	4r	.	4r	4r
!	!	!	!	!	!	!LO:LB:g=original	!	!	!	!	!	!	!
=88	=88	=88	=88	=88	=88	=88	=88	=88	=88	=88	=88	=88	=88
*	*	*	*	*	*ij	*	*	*	*	*	*	*	*
4F\	-	4b\	4aa-X\	4F\	Glo-	4d\	Pa-	4a-X\	Pa-	4bn\	Pa-	1r	1r
8F\L	.	8b\L	8aa-\L	8F\	-ri-	8d\	-tri	8a-\	-tri	8b\	-tri	.	.
8F\J	.	8b\J	8aa-\J	8F\	-a	8d\	et	8a-\	et	8b\	et	.	.
*	*	*	*	*	*Xij	*	*	*	*	*	*	*	*
4.E-X\	6 3	4.cc\	4.gg\	4.E-X\	Pa-	4.e-X\	Fi-	4.g\	Fi-	4.cc\	Fi-	.	.
8E-\	.	8cc\	8gg\	8E-\	-tri	8c\	-li-	8g\	-li-	8cc\	-li-	.	.
=89	=89	=89	=89	=89	=89	=89	=89	=89	=89	=89	=89	=89	=89
4D\	-	4a/	4ff#X\	4D\	Glo-	4.d\	-o	4f#X\	-o	4a\	-o	2r	2r
!	!	!LO:LB:g=original	!	!	!	!	!	!	!	!	!	!	!
8D\L	.	8dd\L	8aa\L	8D\	-ri-	.	.	8f#\	et	8a\	et	.	.
8D\J	.	8dd\J	8aa\J	8D\	-a	8d\	et	8f#\	Spi-	8a\	Spi-	.	.
4G\	.	4dd\	4bb-X\	4G\	Fi-	8d\	Spi-	4g\	-ri-	4b-X\	-ri-	4g/	4dd\
.	.	.	.	.	.	8d\	-ri-	.	.	.	.	.	.
8G\L	.	8dd\L	8bb-\L	8G\	-li-	8d\	-tu-	8g\	-tu-	8b-\	-tui	8g/L	8dd\L
8G\J	.	8dd\J	8bb-\J	8G\	-o	8d\	-i	8g\	-i	8b-\	.	8g/J	8dd\J
=90	=90	=90	=90	=90	=90	=90	=90	=90	=90	=90	=90	=90	=90
!	!	!	!LO:SIC:s=4bb-:v	!	!	!	!	!	!	!	!	!	!
!	!	!	!	!	!	!	!	!	!	!LO:SIC:s=4b-:v	!	!	!
4En\	6 3	4gg\	4bb\	4En\	et	(>2c\	San-	4g\	San-	(>4b\	San-	4cc\	4ee\
!	!	!	!	!LO:LB:g=original	!	!	!	!	!	!	!	!	!
2F\	3 2	4cc\	4aa\	2F\	Spiri-	.	.	4an\	.	4a\)	.	4cc\	4cc\
!	!	!	!	!	!	!	!	!	!	!	!	!LO:SIC:s=4b:v	!
.	.	4dd\	4bbn\	.	.	4d\)	.	2g\	.	4bn\	-cto	4a\	4dd\
!	!	!	!	!	!	!LO:SIC:s=4g:v	!	!	!	!	!	!	!
4E\	6 6	4ee\	4ccc\	4E\	-tui	4fn\	-cto	.	.	4cc\	San-	4cc\	4ee\
!	!	!	!	!	!	!	!	!	!	!	!	!LO:LB:g=original	!
=91	=91	=91	=91	=91	=91	=91	=91	=91	=91	=91	=91	=91	=91
!	!	!	!LO:TX:a:t=P:problem=w źródle zakończenie taktu w postaci wielu cienkich kresek pionowych i dwóch grubych poziomych	!	!	!	!	!	!	!	!	!	!
2D\	6	2ff\	4ccc\	2D\	San-	(>4A\	San-	2f\	.	4cc\	.	4.dd\	4.ff\
!	!	!	!	!	!	!LO:SIC:s=4B:v	!	!	!	!	!	!	!
.	.	.	4bb\	.	.	4c\)	-cto	.	.	4bn\	.	.	.
.	.	.	.	.	.	.	.	.	.	.	.	8dd\	8ff\
!	!	!	!	!	!	!	!	!	!	!	!	!LO:SIC:s=2g:v	!LO:SIC:s=2ee:v
2C/	.	2ee\	2ccc\	2C/	-cto	2G/	.	2e\	-cto	2cc\	-cto	2a/	2ff\
!	!	!	!	!	!	!	!	!	!	!	!	!	!LO:LB:g=original
=92||	=92||	=92||	=92||	=92||	=92||	=92||	=92||	=92||	=92||	=92||	=92||	=92||	=92||
*M2/4	*	*M2/4	*M2/4	*M2/4	*	*M2/4	*	*M2/4	*	*M2/4	*	*M2/4	*M2/4
!LO:TX:b:i:t=Sicut	!	!	!	!	!	!	!	!	!	!	!	!	!
!LO:TX:a:i:t=allo	!	!	!	!	!	!	!	!LO:TX:a:i:t=allo	!	!LO:TX:a:i:t=allo	!	!	!
4C/	.	8r	2g\	4C/	Si-	4c\	Si-	4e\	Si-	4g\	Si-	8r	8r
.	.	8e/L	.	.	.	.	.	.	.	.	.	8e/L	8cc\L
4C/	.	8e/	.	4C/	-cut	4c\	-cut	4e\	-cut	4g\	-cut	8e/	8cc\
.	.	8e/J	.	.	.	.	.	.	.	.	.	8e/J	8cc\J
=93	=93	=93	=93	=93	=93	=93	=93	=93	=93	=93	=93	=93	=93
4F\	.	8r	2a\	4F\	e-	4c\	e-	4f\	e-	4a\	e-	8r	8r
.	.	8c/L	.	.	.	.	.	.	.	.	.	8c/L	8cc\L
4F\	.	8c/	.	4F\	-rat	4c\	-rat	4f\	-rat	4a\	-rat	8c/	8cc\
.	.	8c/J	.	.	.	.	.	.	.	.	.	8c/J	8cc\J
!	!	!	!	!	!	!	!	!LO:LB:g=original	!	!LO:LB:g=original	!	!	!
=94	=94	=94	=94	=94	=94	=94	=94	=94	=94	=94	=94	=94	=94
4D\	6	8r	2b\	4D\	in	4d\	in	4f\	in	4b\	in	8r	8r
.	.	8f/L	.	.	.	.	.	.	.	.	.	8G/L	8dd\L
!	!	!	!	!	!	!LO:SIC:s=4d:v	!	!	!	!	!	!	!
4D\	.	8f/	.	4D\	prin-	4c\	prin-	4f\	prin-	4b\	prin-	8G/	8dd\
.	.	8f/J	.	.	.	.	.	.	.	.	.	8G/J	8dd\J
=95	=95	=95	=95	=95	=95	=95	=95	=95	=95	=95	=95	=95	=95
8.C/L	.	8r	4cc\	8.C/	ci-	8.G\	ci-	8e\	ci-	8.cc\	-ci-	8r	8r
!	!	!	!	!	!	!	!	!	!	!	!	!	!LO:SIC:s=8cc:v
.	.	8e/L	.	.	.	.	.	16e\	-pio	.	.	8c/L	8dd\L
16C/K	.	.	.	16C/	-pi-	16G\	-pi-	16e\	.	16cc\	-pi-	.	.
!	!	!	!	!	!	!LO:LB:g=original	!	!	!	!	!	!	!
!	!	!	!	!	!	!	!	!	!	!	!	!	!LO:SIC:s=8cc:v
8C/	.	8e/	4g\	8C/	-o	8G\	-o	4e\	et	8g\	-o	8c/	8dd\
!	!	!	!	!	!	!	!	!	!	!	!	!	!LO:SIC:s=8cc:v
8C/J	.	8e/J	.	8C/	et	8c\	et	.	.	8g\	et	8c/J	8dd\J
=96	=96	=96	=96	=96	=96	=96	=96	=96	=96	=96	=96	=96	=96
4F\	.	8r	2a\	4F\	nunc	4c\	nunc	4f\	nunc	4a\	nunc	8r	8r
.	.	8c/L	.	.	.	.	.	.	.	.	.	8c/L	8cc\L
4F\	.	8c/	.	4F\	et	4c\	et	4f\	et	4a\	et	8c/	8cc\
.	.	8c/J	.	.	.	.	.	.	.	.	.	8c/J	8cc\J
!	!	!	!LO:LB:g=original	!	!	!	!	!	!	!	!	!	!
=97	=97	=97	=97	=97	=97	=97	=97	=97	=97	=97	=97	=97	=97
2D\	.	8r	2b\	2D\	Sem-	2d\	sem-	2f\	sem-	2b\	sem-	8r	8r
.	.	8f/L	.	.	.	.	.	.	.	.	.	8G/L	8dd\L
.	.	8f/	.	.	.	.	.	.	.	.	.	8G/	8dd\
.	.	8f/J	.	.	.	.	.	.	.	.	.	8G/J	8dd\J
=98	=98	=98	=98	=98	=98	=98	=98	=98	=98	=98	=98	=98	=98
8C\L	.	8r	4cc\	8C/	per	4G/	-per	4e\	-per	4cc\	-per	8r	8r
*	*	*	*	*	*ij	*	*	*	*	*	*	*	*
16C\L	.	8ee\L	.	16C/LL	et	.	.	.	.	.	.	8cc\L	16ee\LL
16D\JJ	.	.	.	16D/JJ	.	.	.	.	.	.	.	.	16ff\JJ
8E\L	.	8ee\	4gg\	8E\	nunc	8e\	et	8e\	et	8gg\	et	8cc\	8gg\L
8C\J	.	8ee\J	.	8C/	et	8e\	-in	8e\	-in	8gg\	-in	8cc\J	8ee\J
=99	=99	=99	=99	=99	=99	=99	=99	=99	=99	=99	=99	=99	=99
8D/L	.	8r	2ff\	8D\	sem-	4.d\	saecu-	4.f\	Sae-	4.ff\	Sae-	8r	8r
8D/	.	8dd\L	.	8D\	-per	.	.	.	.	.	.	8dd\L	16ff\LL
.	.	.	.	.	.	.	.	.	.	.	.	.	16ee\JJ
*	*	*	*	*	*Xij	*	*	*	*	*	*	*	*
8BB/	.	8dd\	.	8BB/	et	.	.	.	.	.	.	8dd\	8ff\L
8GG/J	.	8dd\J	.	8GG/	in	8d\	.	8g\	-cu	8ff\	-cu	8g\J	8dd\J
!	!	!LO:LB:g=original	!	!	!	!	!	!	!	!	!	!	!
=100	=100	=100	=100	=100	=100	=100	=100	=100	=100	=100	=100	=100	=100
8C\L	.	8r	4ee\	8C\	sae-	4c\	-la	4g\	la	4ee\	la	8r	8r
16C\L	.	16ee\LL	.	16C\	-cu-	.	.	.	.	.	.	8cc\L	16ee\LL
16D\JJ	.	16ff\JJ	.	16D\	-la	.	.	.	.	.	.	.	16ff\JJ
!	!	!	!	!LO:LB:g=original	!	!	!	!	!	!	!	!	!
!	!	!	!	!	!	!	!	!	!	!LO:SIC:s=8cc:v	!	!	!
8E\L	.	8gg\L	4ccc\	8E\	sae-	8c\	se-	8g\	saecu-	8dd\	sae-	8cc\	8gg\L
(>8F\J	.	8aa\J	.	8F\	-cu-	8c\	-cu-	8a\	.	8cc\	-cu-	8cc\J	8aa\J
=101	=101	=101	=101	=101	=101	=101	=101	=101	=101	=101	=101	=101	=101
!LO:TX:a:t=P:problem=mixed beam	!	!	!	!	!	!	!	!	!	!	!	!	!
8E\L)	.	8r	4ccc\	8.E\	-lo-	8.e\	lo-	8g\	-lo-	8.cc\	-lo-	8r	8r
8F\	.	16gg\LL	.	.	.	.	.	8a\	-rum	.	.	8cL/	8c/L
.	.	16aa\JJ	.	16F\	-rum	16d\	-rum	.	.	16dd\	-rum	.	.
!	!	!	!	!	!	!	!	!	!	!	!	!LO:TX:a:t=P:problem=w źródle nuta 8g przypomina ćwierćnutę	!LO:TX:a:t=P:problem=w źródle nuta 8g przypomina ćwierćnutę
!	!	!	!	!LO:TX:a:t=P:problem=mixed beam	!	!	!	!	!	!	!	!	!
!	!	!	!	!LO:SIC:s=a-:v:t=samogłoska a powinna znajdować się pod nutą 8G	!	!	!	!	!	!	!	!	!
8G\	.	8dd\L	4bb\	8G\L	.	4d\	a-	4g\	a-	4b\	a-	8g/	8g/
8GG/J	.	8gg\J	.	8GG/J	a-	.	.	.	.	.	.	8G/J	8G/J
=102	=102	=102	=102	=102	=102	=102	=102	=102	=102	=102	=102	=102	=102
!	!	!	!LO:TX:a:t=P:problem=w źródle zakończenie taktu w postaci wielu cienkich kresek pionowych i dwóch grubych poziomych	!	!	!	!	!	!	!	!	!	!
!	!	!LO:TX:a:t=P:problem=w źródle zakończenie taktu w postaci wielu cienkich kresek pionowych i dwóch grubych poziomych	!	!	!	!	!	!	!	!	!	!	!
4C/	.	4ee\	4ccc\	4C/	-men	4e\	-men	4g\	-men	4cc\	-men	4c/	4c/
!	!	!	!	!	!	!	!	!	!	!	!	!	!LO:TX:a:t=P:problem=w źródle niejasny zapis; pauza wygląda troche jak 4qa i 4cc
4r	.	4r	4r	4r	.	4r	.	4r	.	4r	.	4r	4r
!LO:TX:a:t=P:problem=tajemniczy znak po podwójnej kończącej kresce taktowej	!	!	!	!	!	!	!	!LO:TX:a:t=P:problem=tajemniczy znak po podwójnej kończącej kresce taktowej	!	!	!	!	!
*	*	*2\left	*2\left	*	*	*	*	*	*	*	*	*	*
==	==	==	==	==	==	==	==	==	==	==	==	==	==
*-	*-	*-	*-	*-	*-	*-	*-	*-	*-	*-	*-	*-	*-
!!!system-decoration: [(s1,s2)],[(s3,s4,s5,s6)],[(s7,s8)],s9
!!!RDF**kern: > = above
!!!RDF**kern: < = below
!!!EED: Wojciech Jakubiak-Danek
!!!EEV: 2020-10-03
!!!ENC: Andrzej Gręziak
!!!END: 2020-04-24
